!!!!SEGMENT: pl-wnifc--6022-n--006_elsner-jozef--rondo-a-la-mazurek.krn
!!!cenid: 18xx:3923
!!!COM: Elsner, Józef
!!!COM-rismID: pe30000957
!!!CDT: 1769/06/01-1854/04/18
!!!CNT: Polish
!!!OTL: Rondo a la Mazurek
!!!PDT:
!!!AGN:
!!!SMS-siglum: PL-Wnifc
!!!SMS-shelfmark: 6022/n
!!!SMS-shelfwork: 006 W
!!!SMS-variant:
!!!SMS-altvar:
!!!NIFC-rismSourceID: 1001134343
!!!NIFC-rismChildID: 1001134350
!!!NIFC-islandoraID: nifc:212599
!!!URL-pdf-islandora: https://repozytorium.nifc.pl/islandora/object/nifc%3A212599/datastream/PDF/view
!!!URL-scan: https://polish.musicsources.pl/pl/lokalizacje/galeria/druki-muzyczne/16849 @EN{Scan on Polish Music Sources Website} @PL{Skany w portalu Dziedzictwo Muzyki Polskiej w otwartym dostępie}
!!!ONB-nifc: UWAGA: s. 16-19
!!!AIN: 2 piano
!!!key: C
**kern	**kern	**dynam
*part2	*part1	*part1
*staff2	*staff1	*
*I"Piano	*I"Rondo	*
*Ipiano	*Ipiano	*
*ICklav	*ICklav	*
*clefG2	*clefG2	*
*k[]	*k[]	*
*C:	*C:	*
*M3/8	*M3/8	*
=1	=1	=1
!	!LO:TUP:a:problem:klamra łukowa	!
!	!LO:TX:a:i:t=a la Mazurék	!
8c/L 8e 8g	24ee\LL	.
.	24ff\	.
.	24gg\JJ	.
8c/ 8e 8g	8.cc\L	.
8c/J 8e 8g	.	.
.	16ee\Jk	.
=2	=2	=2
*tremolo	*	*
8B/L 8f 8g	(16gg\LL	.
.	16ff\JJ)	.
8B/ 8f 8g	4dd\	.
8B/J 8f 8g	.	.
=3	=3	=3
8c/L 8e 8g	(16cc\LL	.
.	16b\	.
8c/ 8e 8g	16cc\	.
.	16dd\	.
8c/J 8e 8g	16ee\	.
.	16cc\JJ)	.
=4	=4	=4
8G/L 8B 8d	16dd\LL	.
.	16b\JJ	.
8G/ 8B 8d	4g/	.
8G/J 8B 8d	.	.
=5	=5	=5
*clefF4	*	*
8E\L 8G 8c	16cc\LL	.
.	16b\	.
8E\ 8G 8c	16cc\	.
.	16dd\JJ	.
!	!LO:TUP:a:problem:klamra łukowa	!
8E\J 8G 8c	24ee\LL	.
.	24dd\	.
.	24cc\JJ	.
=6	=6	=6
8F\L 8A 8d	16a\LL	.
.	16ff\JJ	.
8F\ 8A 8d	8.dd\L	.
8F\J 8A 8d	.	.
.	16cc\Jk	.
=7	=7	=7
8G\L 8d 8f	(16cc\LL	.
.	16b\	.
8G\ 8d 8f	16a\	.
.	16g\	.
8G\J 8d 8f	16a\	.
.	16b\JJ)	.
=8	=8	=8
8c\L 8e	(16dd\LL	.
.	16cc\JJ)	.
8c\ 8e	4cc\	.
8c\J 8e	.	.
!!LO:LB:g=original
=9:|!|:	=9:|!|:	=9:|!|:
8G\L 8B 8d	8.dd\L	.
8G\ 8B 8d	.	.
.	16ee\Jk	.
*	*Xtuplet	*
!	!LO:TUP:a:problem:klamra łukowa	!
8G\J 8A#X 8c#X	24cc#X\LL	rf
.	24dd\	.
.	24ee\JJ	.
=10	=10	=10
8G\L 8B 8d	16dd\LL	.
.	16gg\	.
8G\ 8B 8d	16b\	.
.	16gg\	.
8G\J 8B 8d	16g\	.
.	16gg\JJ	.
=11	=11	=11
*Xtremolo	*	*
8G\L 8c 8e	8ee\L	.
8G\ 8c 8e	8ff\J	.
!	!LO:TUP:a:problem:klamra łukowa	!
8G\J 8B 8d	24dd\LL	rf
.	24ee\	.
.	24ff\JJ	.
=12	=12	=12
*tremolo	*	*
8G\L 8c 8e	16ee\LL	.
.	16gg\	.
8G\ 8c 8e	16cc\	.
.	16gg\	.
8G\J 8c 8e	16g\	.
.	16gg\JJ	.
=13	=13	=13
*Xtremolo	*	*
8G\L 8d 8f	8.ff\L	.
8G\ 8d 8f	.	.
.	16gg\Jk	.
!	!LO:TUP:a:problem:klamra łukowa	!
8G\J 8c#X 8e	24ee\LL	rf
.	24ff\	.
.	24gg\JJ	.
=14	=14	=14
8G\L 8d 8f	16ff\LL	.
.	16aa\	.
8G\ 8d 8f	16dd\	.
.	16aa\	.
8G\J 8d 8f	16b\	.
.	16aa\JJ	.
=15	=15	=15
!	!LO:TX:t=P:problem:mixed beam	!
4.G\ 4.B 4.d [4.f	8g/L	.
.	8ddd\	.
.	8bb\J	.
=16	=16	=16
4G\ 4B 4d 4f]	8gg\L	.
!	!LO:TX:t=P:problem:LO:N:vis=8.	!
.	8fff\	.
8r	[8eee\J	.
=17	=17	=17
4.r	(16eee\LL]	>
.	16ccc\	.
.	16bb\	.
.	16ccc\	.
.	16bb\	.
.	16aa\JJ)	]]
!!LO:LB:g=original
=18	=18	=18
4.r	(16gg\LL	.
.	16ff#X\	.
.	16gg\	.
.	16aa\	.
.	16gg\	.
.	16ff#\JJ)	.
=19	=19	=19
4.r	(16gg\LL	.
.	16ff#X\	.
.	16gg\	.
.	16aa\	.
.	16gg\	.
.	16ff#\JJ)	.
=20	=20	=20
4.r	4.ffn\	.
=21	=21	=21
*clefG2	*tuplet	*
!	!LO:TUP:a:problem:klamra łukowa	!
8c/L 8e 8g	24ee\LL	mf
.	24ff\	.
.	24gg\JJ	.
8c/ 8e 8g	8.cc\L	.
8c/J 8e 8g	.	.
.	16ee\Jk	.
=22	=22	=22
*tremolo	*	*
8B/L 8f 8g	(16gg\LL	.
.	16ff\JJ)	.
8B/ 8f 8g	4dd\	.
8B/J 8f 8g	.	.
=23	=23	=23
8c/L 8e 8g	16cc\LL	.
.	16b\	.
8c/ 8e 8g	16cc\	.
.	16dd\	.
8c/J 8e 8g	16ee\	.
.	16cc\JJ	.
=24	=24	=24
8G/L 8B 8d	16ee\LL	.
.	16dd\JJ	.
8G/ 8B 8d	4g/	.
8G/J 8B 8d	.	.
=25	=25	=25
*clefF4	*	*
8E\L 8G 8c	16cc\LL	.
.	16b\	.
8E\ 8G 8c	16cc\	.
.	16dd\JJ	.
!	!LO:TUP:a:problem:klamra łukowa	!
8E\J 8G 8c	24ee\LL	.
.	24dd\	.
.	24cc\JJ	.
=26	=26	=26
8F\L 8A 8d	16a\LL	.
.	16ff\JJ	.
8F\ 8A 8d	8.dd\L	.
8F\J 8A 8d	.	.
.	16cc\Jk	.
=27	=27	=27
8G\L 8d 8f	(16cc\LL	.
.	16b\	.
8G\ 8d 8f	16a\	.
.	16g\	.
8G\J 8d 8f	16a\	.
.	16b\JJ)	.
!!LO:LB:g=original
=28	=28	=28
8c\L 8e	(16dd\LL	.
.	16cc\JJ)	.
8c\ 8e	4cc\	.
8c\J 8e	.	.
=29:|!|:	=29:|!|:	=29:|!|:
16A\LL 16c	(16aa\LL	.
16e\	16ccc\JJ)	.
16A\ 16c	8.ddd\L	.
16e\	.	.
16G#X\ 16B	.	.
16e\JJ	16ddd\Jk	.
=30	=30	=30
16A\LL 16c	16ccc\LL	.
16e\	(16bb\	.
16A\ 16c	16aa\	.
16e\	16ccc\	.
16A\ 16c	16bb\	.
16e\JJ	16aa\JJ)	.
=31	=31	=31
16E\LL 16G#X	16bb\LL	.
16B\	16eee\JJ	.
16E\ 16G#	4ee\	rf
16B\	.	.
16E\ 16G#	.	.
16B\JJ	.	.
=32	=32	=32
16E\LL 16G#X	16bb\LL	.
16B\	16eee\JJ	.
16E\ 16G#	4ee\	rf
16B\	.	.
16E\ 16G#	.	.
16B\JJ	.	.
=33	=33	=33
16D\LL 16Gn	8r	.
16c\	.	.
16D\ 16G	8ff\L 8fff	f
16c\	.	.
16D\ 16G	8ff\J 8fff	.
16c\JJ	.	.
=34	=34	=34
16E\LL 16G	8.ee\L 8.eee	.
16c\	.	.
16E\ 16G	.	.
16c\	16dd\L 16ddd	.
16E\ 16G	16cc\ 16ccc	.
16c\JJ	16b\JJ 16bb	.
=35	=35	=35
*Xtremolo	*	*
16E\LL 16G	8a\L 8aa	.
16c\	.	.
16E\ 16G	(8.fff\	.
16c\	.	.
16E\ 16G	.	.
16c\JJ	16ddd\Jk)	.
=36	=36	=36
*clefG2	*	*
*tremolo	*	*
(16c/LL 16e	(16ddd\LL	.
16g/	16ccc\JJ)	.
16c/ 16e	4ccc\	.
16g/	.	.
16c/ 16e	.	.
16g/JJ)	.	.
*clefF4	*	*
!!LO:PB:g=original
=37:|!|:	=37:|!|:	=37:|!|:
(16G#X\LL 16B	(16bb\LL	p
16e\	16ccc\	.
16G#\) 16B	16ddd\	.
16e\	16eee\JJ)	.
*	*Xtuplet	*
!	!LO:TUP:a:problem:klamra łukowa	!
16A\ 16c	24ccc\LL	rf
.	24bb\	.
16e\JJ	.	.
.	24aa\JJ	.
=38	=38	=38
(16B\LL 16d	(16gg#X\LL	.
16e\	16aa\	.
16B\ 16d	16bb\	.
16e\)	16gg#\	.
16A\ 16c	16aa\	.
16e\JJ	16ccc\JJ)	.
=39	=39	=39
16G#X\LL 16B	16bb\LL	.
16e\	16ccc\	.
16G#\ 16B	16ddd\	.
16e\	16eee\JJ	.
!	!LO:TUP:a:problem:klamra łukowa	!
16A\ 16c	24ccc\LL	rf
.	24bb\	.
16e\JJ	.	.
.	24aa\JJ	.
=40	=40	=40
16B\LL 16d	16gg#X\LL	.
16e\	16aa\	.
16B\ 16d	16bb\	.
16e\	16gg#\	.
16A\ 16c	16aa\	.
16e\JJ	16ccc\JJ	.
=41	=41	=41
*Xtremolo	*	*
16D\LL 16F	8r	.
16B\	.	.
16D\ 16F	8dd\L 8ddd	f
16B\	.	.
16D\ 16F	8dd\J 8ddd	.
16B\JJ	.	.
=42	=42	=42
*tremolo	*	*
!	!LO:TUP:a:problem:klamra łukowa	!
(16C\LL 16B	24aa\LL	.
.	24bb\	.
16d\	.	.
.	24aa\JJ	.
16C\ 16B	8.gg#X\L	.
16d\	.	.
16C\ 16B	.	.
16d\JJ)	16bb\Jk	.
=43	=43	=43
(16A\LL 16c	16bb\LL	.
16e\	16aa\JJ	.
16A\ 16c	4aa\	.
16e\	.	.
16A\ 16c	.	.
16e\JJ)	.	.
=44:|!	=44:|!	=44:|!
16F\LL 16A	8r	f
16d\	.	.
16F\ 16A	8dd\L 8ddd	.
16d\	.	.
16F\ 16A	8dd\J 8ddd	.
16d\JJ	.	.
!!LO:LB:g=original
=45	=45	=45
(16F\LL 16A	8r	.
16d\	.	.
16F\ 16A	8dd\L 8ddd	.
16d\	.	.
16F\ 16A	8dd\J 8ddd	.
16d\JJ)	.	.
=46	=46	=46
(16F\LL 16A	8.ff\L 8.fff	.
16d\)	.	.
(16F\ 16A	.	.
16d\)	16ee\L 16eee	.
(16F\ 16A	16dd\ 16ddd	.
16d\JJ)	16cc\JJ 16ccc	.
=47	=47	=47
16G\LL 16d	8.b\L 8.bb	.
16f\	.	.
16G\ 16d	.	.
16f\	(16g\L 16gg	.
16G\ 16d	16a\ 16aa	.
16f\JJ	16b\JJ) 16bb	.
=48	=48	=48
(16c\LL 16e	8r	.
16g\)	.	.
(16c\ 16e	8cc\L 8ccc	.
16g\)	.	.
(16c\ 16e	8cc\J 8ccc	.
16g\JJ)	.	.
=49	=49	=49
(16A\LL 16c	8r	.
16e\)	.	.
(16A\ 16c	8ee\L 8eee	.
16e\)	.	.
(16A\ 16c	8ee\J 8eee	.
16e\JJ)	.	.
=50	=50	=50
(16F\LL 16A	8.ff\L 8.fff	.
16d\)	.	.
(16F\ 16A	.	.
16d\)	16ee\L 16eee	.
(16F\ 16A	16dd\ 16ddd	.
16d\JJ)	16cc\JJ 16ccc	.
=51	=51	=51
16G\LL 16d	8.b\L 8.bb	.
16f\	.	.
16G\ 16d	.	.
16f\	(16g\L 16gg	.
16G\ 16d	16a\ 16aa	.
16f\JJ	16b\JJ) 16bb	.
*clefG2	*	*
=52	=52	=52
(16c/LL 16e	8cc\L 8ccc	fp
16g/)	.	.
(16c/ 16e	8ccc\	.
16g/)	.	.
(16c/ 16e	8ccc\J	.
16g/JJ)	.	.
=53	=53	=53
*	*tuplet	*
!	!LO:TUP:a:problem:klamra łukowa	!
(16d/LL 16f	24bb\LL	.
.	24ccc\	.
16g/	.	.
.	24ddd\JJ	.
16d/ 16f	8gg\	.
16g/	.	.
16d/ 16f	8r	.
16g/JJ)	.	.
=54	=54	=54
*	*clefF4	*
(16c/LL 16e	8r	.
16g/	.	.
16c/ 16e	8C/L	p
16g/	.	.
16c/ 16e	8C/J	.
16g/JJ)	.	.
!!LO:LB:g=original
=55	=55	=55
*	*Xtuplet	*
!	!LO:TUP:b:problem:klamra łukowa	!
(16d/LL 16f	24BB/LL	.
.	24C/	.
16g/	.	.
.	24D/JJ	.
16d/ 16f	8GG/	.
16g/	.	.
16d/ 16f	8r	.
16g/JJ)	.	.
=56	=56	=56
*	*clefG2	*
(16c/LL 16e	8r	.
16g/	.	.
16c/ 16e	8ee\L	pp
16g/	.	.
16c/ 16e	8ee\J	.
16g/JJ)	.	.
=57	=57	=57
(16B/LL 16d	(16gg\LL	.
16g/	16ff\JJ	.
16B/ 16d	8dd\)	.
16g/	.	.
16B/ 16d	8r	.
16g/JJ)	.	.
=58	=58	=58
*	*clefF4	*
(16c/LL 16e	8r	.
16g/	.	.
16c/ 16e	8E\L	.
16g/	.	.
16c/ 16e	8E\J	.
16g/JJ)	.	.
=59	=59	=59
(16B/LL 16d	(16G\LL	.
16g/	16F\JJ	.
16B/ 16d	8D\)	.
16g/	.	.
16B/ 16d	8r	.
16g/JJ)	.	.
=60	=60	=60
(16c/LL 16e	(16C/LL	.
16g/	16BB/	.
16c/ 16e	16C/	.
16g/	16D/JJ)	.
*	*tuplet	*
!	!LO:TUP:b:problem:klamra łukowa	!
16c/ 16e	24E/LL	.
.	24D/	.
16g/JJ)	.	.
.	24C/JJ	.
=61	=61	=61
(16d/LL 16f	(16BB/LL	.
16g/	16D/JJ)	.
16d/ 16f	8GG/	.
16g/	.	.
16d/ 16f	8r	.
16g/JJ)	.	.
=62	=62	=62
*	*clefG2	*
(16c/LL 16e	16ccc\LL	.
16g/	16bb\	.
16c/ 16e	16ccc\	.
16g/	16ddd\JJ	.
*	*Xtuplet	*
!	!LO:TUP:a:problem:klamra łukowa	!
16c/ 16e	24eee\LL	<
.	24ddd\	.
16g/JJ)	.	.
.	24ccc\JJ	.
=63	=63	=63
(16d/LL 16f	16bb\LL	.
16g/	16ddd\JJ	[
16d/ 16f	8.gg\L	.
16g/	.	.
16d/ 16f	.	.
16g/JJ)	16bb\Jk	.
!!LO:LB:g=original
=64	=64	=64
8c/L 8e 8g	16ccc\LL	ff
.	16eee\	.
8c/ 8e 8g	16gg\	.
.	16eee\	.
8c/J 8e 8g	16ccc\	.
.	16eee\JJ	.
=65	=65	=65
8B/L 8d 8g	16ddd\LL	.
.	16fff\	.
8B/ 8d 8g	16gg\	.
.	16fff\	.
8B/J 8d 8g	16ddd\	.
.	16fff\JJ	.
=66	=66	=66
8c/L 8e 8g	16ccc\LL	.
.	16eee\	.
8c/ 8e 8g	16gg\	.
.	16eee\	.
8c/J 8e 8g	16ccc\	.
.	16eee\JJ	.
=67	=67	=67
8B/L 8d 8g	16ddd\LL	.
.	16fff\	.
8B/ 8d 8g	16gg\	.
.	16fff\	.
8B/J 8d 8g	16ddd\	.
.	16fff\JJ	.
=68	=68	=68
4c/ 4e 4g	16ccc\LL	.
.	16eee\	.
.	16gg\	.
.	16eee\	.
8r	16ccc\	.
.	16eee\JJ	.
=69	=69	=69
*clefF4	*	*
*Xtremolo	*	*
8A\L 8c	16ccc\LL	.
.	16eee\	.
8A\ 8c	16aa\	.
.	16eee\	.
8A\J 8c	16gg\	.
.	16eee\JJ	.
=70	=70	=70
4A\ 4c	16ff#X\LL	.
.	16eee\	.
.	16ddd\	.
.	16ccc\	.
8r	16bb\	.
.	16aa\JJ	.
=71	=71	=71
!	!LO:TUP:a:problem:klamra łukowa	!
8G\L 8B	24gg\LL	.
.	24aa\	.
.	24gg\JJ	.
8A\ 8c	16ff#X\LL	rf
.	16aa\	.
8A\J 8c	16dd\	.
.	16ff#\JJ	.
=72	=72	=72
!	!LO:TUP:a:problem:klamra łukowa	!
8G\L 8B	24gg\LL	.
.	24aa\	.
.	24gg\JJ	.
8A\ 8c	16ff#X\LL	rf
.	16aa\	.
8A\J 8c	16dd\	.
.	16ff#\JJ	.
=73	=73	=73
4G\ 4B	16gg\LL	.
.	16bb\	.
.	16dd\	.
.	16bb\	.
8r	16b\	.
.	16bb\JJ	.
!!LO:PB:g=original
=74	=74	=74
!	!LO:TX:t=P:problem:mixed beam	!
4.r	8g/L	.
.	8ddd\	.
.	8bb\J	.
=75	=75	=75
4.r	8gg\L	.
.	8.fff\	.
.	16eee\Jk	.
=76	=76	=76
4.r	(16ddd\LL	.
.	16ccc\	.
.	16bb\	.
.	16ccc\	.
.	16bb\	>
.	16aa\JJ)	.
=77	=77	=77
4.r	16gg\LL	.
.	16ff#X\	.
.	16gg\	.
.	16aa\	.
.	16gg\	.
.	16ff#\JJ	]
=78	=78	=78
4.r	(16gg\LL	.
.	16ff\	.
.	16gg\	.
.	16aa\	.
.	16gg\	.
.	16ff\JJ)	.
=79	=79	=79
4.r	4.ffn\	.
=80	=80	=80
*k[b-e-a-]	*k[b-e-a-]	*
*clefG2	*tuplet	*
!	!LO:TX:b:i:t=dolce	!
!	!LO:TUP:a:problem:klamra łukowa	!
8c/L 8e- 8g	24ee-\LL	p
.	24ff\	.
.	24gg\JJ	.
8c/ 8e- 8g	8.cc\L	.
8c/J 8e- 8g	.	.
.	16ee-\Jk	.
=81	=81	=81
*tremolo	*	*
8Bn/L 8f 8g	(16gg\LL	.
.	16ff\JJ)	.
8B/ 8f 8g	4dd\	.
8B/J 8f 8g	.	.
=82	=82	=82
8c/L 8e- 8g	(16cc\LL	.
.	16bn\	.
8c/ 8e- 8g	16cc\	.
.	16dd\)	.
8c/J 8e- 8g	16ee-\	.
.	16cc\JJ	.
!!LO:LB:g=original
=83	=83	=83
8G/L 8Bn 8d	16dd\LL	.
.	16bn\JJ	.
8G/ 8B 8d	4g/	.
8G/J 8B 8d	.	.
=84	=84	=84
8A-/L 8c	(16cc\LL	.
.	16bn\	.
8A-/ 8c	16cc\	.
.	16dd\	.
8A-/J 8c	16ee-\	.
.	16een\JJ)	.
=85	=85	=85
8A-/L 8c 8f	16ff\LL	.
.	16cc\JJ	.
8A-/ 8c 8f	8.aa-\L	.
8A-/J 8c 8f	.	.
.	16gg\Jk	.
=86	=86	=86
8B-/L 8f 8a-	16ff\LL	.
.	16ee-\	.
8B-/ 8f 8a-	16dd\	.
.	16cc\JJ	.
!	!LO:TUP:a:problem:klamra łukowa	!
8B-/J 8f 8a-	24b-\LL	.
.	24cc\	.
.	24dd\JJ	.
=87	=87	=87
8e-/L 8g	16ff\LL	.
.	16ee-\JJ	.
8e-/ 8g	4ee-\	.
8e-/J 8g	.	.
=88	=88	=88
*Xtremolo	*	*
8B-/L 8d 8f	8.ff\L	.
8B-/ 8d 8f	.	.
.	16gg\Jk	.
!	!LO:TUP:a:problem:klamra łukowa	!
8B-/J 8c#X 8en	24een\LL	rf
.	24ff\	.
.	24gg\JJ	.
=89	=89	=89
*tremolo	*	*
8B-/L 8d 8f	16ff\LL	.
.	16bb-\	.
8B-/ 8d 8f	16dd\	.
.	16bb-\	.
8B-/J 8d 8f	16b-\	.
.	16bb-\JJ	.
=90	=90	=90
*Xtremolo	*	*
8B-/L 8e- 8g	8.gg\L	rf
8B-/ 8e- 8g	.	.
.	16aa-\Jk	.
!	!LO:TUP:a:problem:klamra łukowa	!
8B-/J 8d 8f	24ff\LL	.
.	24gg\	.
.	24aa-\JJ	.
!!LO:LB:g=original
=91	=91	=91
*tremolo	*	*
8B-/L 8e- 8g	16gg\LL	.
.	16bb-\	.
8B-/ 8e- 8g	16ee-\	.
.	16bb-\	.
8B-/J 8e- 8g	16b-\	.
.	16bb-\JJ	.
=92	=92	=92
8B-/L 8c 8e-	8.aan\L	.
8B-/ 8c 8e-	.	.
.	16bb-\Jk	.
!	!LO:TUP:a:problem:klamra łukowa	!
8B-/J 8c 8e-	24aa\LL	.
.	24bb-\	.
.	24ccc\JJ	.
=93	=93	=93
8B-/L 8c 8e-	16aa-\LL	.
.	16ccc\	.
8B-/ 8c 8e-	16gg-X\	.
.	16ccc\	.
8B-/J 8c 8e-	16ee-\	.
.	16ccc\JJ	.
=94	=94	=94
8B-/L 8c 8e-	16cc\LL	.
.	16eee-\	.
8B-/ 8c 8e-	16ccc\	.
.	16eee-\	.
8B-/J 8c 8e-	16aan\	.
.	16eee-\JJ	.
=95	=95	=95
4B-/ 4d	16bb-\LL	.
.	16ddd\	.
.	16ff\	.
.	16ddd\	.
8r	16dd\	.
.	16ddd\JJ	.
=96	=96	=96
!LO:TX:a:i:t=al piacere	!LO:TX:t=P:problem:mixed beam	!
4.r	16b-\LL	.
.	16ddd\	.
.	16f/	.
.	16ddd\	.
.	16d/	.
.	16ddd\JJ	.
=97	=97	=97
*clefF4	*	*
16BBB-/LL	4B-/	.
16BB-/	.	.
16BBB-/	.	.
16C/	.	.
16BBB-/	8r	.
16D/JJ	.	.
=98	=98	=98
!	!LO:TX:b:i:t=tempo primo	!
!	!LO:TUP:a:problem:klamra łukowa	!
!	!LO:TX:a:i:t=dolce	!
8E-\L 8G 8B-	24gg\LL	pp
.	24aa-\	.
.	24bb-\JJ	.
8E-\ 8G 8B-	8.ee-\L	.
8E-\J 8G 8B-	.	.
.	16gg\Jk	.
!!LO:LB:g=original
=99	=99	=99
8D\L 8A- 8B-	(16bb-\LL	.
.	16aa-\JJ)	.
8D\ 8A- 8B-	4ff\	.
8D\J 8A- 8B-	.	.
=100	=100	=100
8E-\L 8G 8B-	16ee-\LL	.
.	16dd\	.
8E-\ 8G 8B-	16ee-\	.
.	16ff\	.
8E-\J 8G 8B-	16gg\	.
.	16ee-\JJ	.
=101	=101	=101
8BB-\L 8D 8F	16ff\LL	.
.	16dd\JJ	.
8BB-\ 8D 8F	4b-\	.
8BB-\J 8D 8F	.	.
=102	=102	=102
8GG/L 8BB- 8E-	16ee-\LL	.
.	16dd\	.
8GG/ 8BB- 8E-	16ee-\	.
.	16ff\JJ	.
!	!LO:TUP:a:problem:klamra łukowa	!
8GG/J 8BB- 8E-	24gg\LL	.
.	24ff\	.
.	24ee-\JJ	.
=103	=103	=103
8AA-/L 8C 8F	16cc\LL	.
.	16aa-\JJ	.
8AA-/ 8C 8F	8.ff\L	.
8AA-/J 8C 8F	.	.
.	16ee-\Jk	.
=104	=104	=104
8BB-/L 8F 8A-	(16ee-\LL	.
.	16dd\	.
8BB-/ 8F 8A-	16cc\	.
.	16b-\	.
8BB-/J 8F 8A-	16cc\	.
.	16dd\JJ)	.
=105	=105	=105
4.r;	4.r;	.
=106	=106	=106
*k[]	*k[]	*
*Xtremolo	*	*
!	!LO:TUP:a:problem:klamra łukowa	!
(16C\LL 16E	24ee\LL	ff
.	24ff\	.
16G\	.	.
.	24gg\JJ	.
16C\ 16E	8.cc\L	.
16G\	.	.
16C\ 16E	.	.
16G\JJ)	16ee\Jk	.
=107	=107	=107
(16BB\LL 16F	16gg\LL	.
16G\	16ff\JJ	.
16BB\ 16F	4dd\	.
16G\	.	.
16BB\ 16F	.	.
16G\JJ)	.	.
=108	=108	=108
*tremolo	*	*
16C\LL 16E	(16cc\LL	.
16G\	16b\	.
16C\ 16E	16cc\	.
16G\	16dd\	.
16C\ 16E	16ee\	.
16G\JJ	16cc\JJ)	.
!!LO:PB:g=original
=109	=109	=109
16GG\LL 16BB 16D	16dd\LL	.
16G\	16b\JJ	.
16GG\ 16BB 16D	4g/	.
16G\	.	.
16GG\ 16BB 16D	.	.
16G\JJ	.	.
=110	=110	=110
16E\LL 16G	16cc\LL	.
16c\	16b\	.
16E\ 16G	16cc\	.
16c\	16dd\JJ	.
*	*Xtuplet	*
!	!LO:TUP:a:problem:klamra łukowa	!
16E\ 16G	24ee\LL	.
.	24dd\	.
16c\JJ	.	.
.	24cc\JJ	.
=111	=111	=111
16F\LL 16A	16a\LL	.
16d\	16ff\JJ	.
16F\ 16A	8.dd\L	.
16d\	.	.
16F\ 16A	.	.
16d\JJ	16cc\Jk	.
=112	=112	=112
16G\LL 16d	(16cc\LL	<
16f\	16b\	.
16G\ 16d	16a\	[
16f\	16g\	.
16G\ 16d	16a\	.
16f\JJ	16b\JJ)	.
=113	=113	=113
*Xtremolo	*	*
8C\L 8E 8G	8.gg\L	f
8C\ 8E 8G	.	.
.	16aa\Jk	.
!	!LO:TUP:a:problem:klamra łukowa	!
8C\J 8D#X 8F#X	24ff#X\LL	rf
.	24gg\	.
.	24aa\JJ	.
=114	=114	=114
*tremolo	*	*
8C\L 8E 8G	16gg\LL	.
.	16ccc\	.
8C\ 8E 8G	16ee\	.
.	16ccc\	.
8C\J 8E 8G	16cc\	.
.	16ccc\JJ	.
=115	=115	=115
*Xtremolo	*	*
8C\L 8F 8A	8.aa\L	.
8C\ 8F 8A	.	.
.	16bb\Jk	.
8C\J 8E 8G#X	24gg#X\LL	rf
.	24aa\	.
.	24bb\JJ	.
=116	=116	=116
*tremolo	*	*
8C\L 8F 8A	16aa\LL	.
.	16ddd\	.
8C\ 8F 8A	16ff\	.
.	16ddd\	.
8C\J 8F 8A	16dd\	.
.	16ddd\JJ	.
=117	=117	=117
8C\L 8D 8F	16ff\LL	.
.	16bb\	.
8C\ 8D 8F	16dd\	.
.	16bb\	.
8C\J 8D 8F	16ff\	.
.	16bb\JJ	.
!!LO:LB:g=original
=118	=118	=118
8C\L 8D 8F	16aa-X\LL	.
.	16bb\	.
8C\ 8D 8F	16ff\	.
.	16bb\	.
8C\J 8D 8F	16dd\	.
.	16bb\JJ	.
=119	=119	=119
*Xtremolo	*	*
8C\L 8E 8G	8.gg\L	.
8C\ 8E 8G	.	.
.	16aan\Jk	.
8C\J 8D#X 8F#X	24ff#X\LL	rf
.	24gg\	.
.	24aa\JJ	.
=120	=120	=120
*tremolo	*	*
8C\L 8E 8G	16gg\LL	.
.	16ccc\	.
8C\ 8E 8G	16ee\	.
.	16ccc\	.
8C\J 8E 8G	16cc\	.
.	16ccc\JJ	.
=121	=121	=121
8C\L 8F 8A	8.aa\L	.
8C\ 8F 8A	.	.
.	16bb\Jk	.
!	!LO:TUP:a:problem:klamra łukowa	!
8C\J 8E 8G#X	24gg#X\LL	rf
.	24aa\	.
.	24bb\JJ	.
=122	=122	=122
8C\L 8F 8A	16aa\LL	.
.	16ddd\	.
8C\ 8F 8A	16ff\	.
.	16ddd\	.
8C\J 8F 8A	16dd\	.
.	16ddd\JJ	.
=123	=123	=123
8C\L 8D 8F	16ff\LL	.
.	16bb\	.
8C\ 8D 8F	16dd\	.
.	16bb\	.
8C\J 8D 8F	16ff\	.
.	16bb\JJ	.
=124	=124	=124
8C\L 8D 8F	16aa-X\LL	.
.	16bb\	.
8C\ 8D 8F	16ff\	.
.	16bb\	.
8C\J 8D 8F	16dd\	.
.	16bb\JJ	.
=125	=125	=125
4C\ 4E	16cc\LL	.
.	16eee\	.
.	16ccc\	.
.	16eee\	.
8r	16gg\	.
.	16eee\JJ	.
=126	=126	=126
16C\LL	4ee\	.
16c\	.	.
16E\	.	.
16c\	.	.
16G\	8r	.
16c\JJ	.	.
!!LO:LB:g=original
=127	=127	=127
16FF\LL	8r	.
16F\	.	.
16AA\	(8ff\L 8aa	rf
16F\	.	.
!LO:TX:a:i:t=dolce	!	!
16D\	8dd\J) 8ff	.
16F\JJ	.	.
=128	=128	=128
16GG\LL	8r	.
16G\	.	.
16C\	(8ee\L 8gg	.
16G\	.	.
16E\	8cc\J) 8ee	.
16G\JJ	.	.
=129	=129	=129
16GG\LL	8r	.
16G\	.	.
16BB\	(8dd\L 8ff	.
16G\	.	.
16D\	8b\J) 8dd	.
16G\JJ	.	.
=130	=130	=130
4C\ 4E	16cc\LL	<
.	16eee\	.
.	16ccc\	[
.	16eee\	.
8r	16gg\	.
.	16eee\JJ	.
=131	=131	=131
16C\LL	4ee\	.
16c\	.	.
16E\	.	.
16c\	.	.
16G\	8r	.
16c\JJ	.	.
=132	=132	=132
16FF\LL	8r	.
16F\	.	.
!	!LO:TX:b:i:t=dolce	!
16AA\	(8ff\L 8aa	.
16F\	.	.
16D\	8dd\J) 8ff	.
16F\JJ	.	.
=133	=133	=133
16GG\LL	8r	.
16G\	.	.
16BB\	(8ee\L 8gg	.
16G\	.	.
16D\	8cc\J) 8ee	.
16G\JJ	.	.
=134	=134	=134
16GG\LL	8r	.
16G\	.	.
16BB\	(8dd\L 8ff	.
16G\	.	.
16D\	8b\J) 8dd	.
16G\JJ	.	.
=135	=135	=135
!	!LO:TUP:a:problem:klamra łukowa	!
16CC/LL	24ee\LL	p
.	24ff\	.
16C/	.	.
.	24gg\JJ	.
16EE/	8.cc\L	.
16C/	.	.
16GG/	.	.
16C/JJ	16ee\Jk	.
!!LO:LB:g=original
=136	=136	=136
16GG/LL	(16gg\LL	.
16G/	16ff\JJ)	.
16BB/	4dd\	.
16G/	.	.
16D/	.	.
16G/JJ	.	.
=137	=137	=137
*Xtremolo	*	*
8GG/L 8G	8dd\L 8ff 8gg 8bb	ff
8GG/J 8G	8dd\J 8ff 8gg 8bb	.
8r	8r	.
=138	=138	=138
8CC/L 8C	8cc\L 8ee 8gg 8ccc	p
8CC/J 8C	8cc\J 8ee 8gg 8ccc	.
8r	8r	.
=139	=139	=139
*	*tuplet	*
!	!LO:TUP:a:problem:klamra łukowa	!
16CC/LL	24ee\LL	.
.	24ff\	.
16C/	.	.
.	24gg\JJ	.
16EE/	8.cc\L	.
16C/	.	.
16GG/	.	.
16C/JJ	16ee\Jk	.
=140	=140	=140
16GG/LL	(16gg\LL	.
16G/	16ff\JJ)	.
16BB/	4dd\	.
16G/	.	.
16D/	.	.
16G/JJ	.	.
=141	=141	=141
8GG/L 8G	8dd\L 8ff 8gg 8bb	ff
8GG/J 8G	8dd\J 8ff 8gg 8bb	.
8r	8r	.
=142	=142	=142
8CC/L 8C	8cc\L 8ee 8gg 8ccc	.
8CC/J 8C	8cc\J 8ee 8gg 8ccc	.
8r	8r	.
=143	=143	=143
8C\L 8c	8e/L 8g 8cc	p
8C\J 8c	8e/J 8g 8cc	.
8r	8r	.
=144	=144	=144
8CC/L 8C	4.r	pp
8CC/J 8C	.	.
8r	.	.
==	==	==
*-	*-	*-
!!!RDF**kern: > = above
!!!RDF**kern: < = below
!!!system-decoration: [(s1,s2)]
!!!ENC: Filip Voros
!!!END: 2022-07-27
!!!ENC: Urszula Świątek
!!!END: 2022-08-24
!!!YEC: Copyright 2022 Narodowy Instytut Fryderyka Chopina (https://polishscores.org)
!!!YEM: License CC-BY-4.0 (https://creativecommons.org/licenses/by/4.0)
